X: 9
T: Bill Sullivan's
C: Terry Teahan
Z: William Beers
S: https://thesession.org/tunes/481#setting36728
R: polka
M: 2/4
L: 1/8
K: Amaj
|:a2 a>f|ec a>f|ec a>f|ec BA|
a2 a>f|ec a>f|ec B>c|1 BA A2:|2 BA A>B||
|:ce ec|df fd|ce eA|cB BA/B/|
ce ec|df f>d|ce B>c|1 BA A>B:|2 BA A2||

